showcase/logo-designathon.svg

<svg clip-rule="evenodd" fill-rule="evenodd" stroke-linejoin="round" stroke-miterlimit="2" viewBox="0 0 417 417" xmlns="http://www.w3.org/2000/svg"><path d="m2059.8 155.078c-1.29-3.216-2-6.727-2-10.404 0-1.811-1.47-3.282-3.29-3.282-1.81 0-3.28 1.471-3.28 3.282 0 4.543.89 8.883 2.49 12.856.67 1.68 2.59 2.495 4.27 1.818s2.49-2.59 1.81-4.27z" transform="matrix(1.56460958502 5.8392130047 -5.8392130047 1.56460958502 -2210.17676814 -12196.7597574)"/><path d="m2082.69 172.408c-6.89-.737-13.03-3.99-17.49-8.82-1.23-1.33-3.31-1.413-4.64-.184s-1.41 3.307-.18 4.637c5.51 5.967 13.1 9.982 21.61 10.893 1.81.192 3.42-1.113 3.62-2.914.19-1.801-1.12-3.42-2.92-3.612z" transform="matrix(1.56460958502 5.8392130047 -5.8392130047 1.56460958502 -2210.17676814 -12196.7597574)"/><path d="m2329.59 109.156c6.64.87 13.05 3.854 18.15 8.951 11.48 11.487 12.24 29.667 2.26 42.032-1.04 1.289-2.93 1.491-4.22.452-1.29-1.04-1.49-2.93-.45-4.219 8.08-10.009 7.46-24.725-1.83-34.022-3.93-3.925-8.82-6.301-13.91-7.13z" transform="matrix(5.7266295813 3.30627347835 -3.30627347835 5.7266295813 -12644.6351157 -8284.173294)"/><path d="m308.193 412.093c.681 0 1.291.425 1.527 1.064 1.565 4.241 7.359 19.942 9.138 24.762.301.815-.036 1.728-.795 2.152-.001.001-.001.001-.002.001-3.607 2.015-5.841 5.823-5.841 9.954-2.517 2.742-11.336 2.742-14.323 0 0-4.131-2.235-7.939-5.842-9.954-.001 0-.001 0-.001-.001-.759-.424-1.097-1.337-.796-2.152 1.779-4.82 7.574-20.521 9.139-24.762.236-.639.845-1.064 1.527-1.064h.001c.902 0 1.633.732 1.633 1.634v18.899c-1.465.594-2.5 2.032-2.5 3.709 0 2.208 1.792 4 4 4s4-1.792 4-4c0-1.677-1.035-3.115-2.5-3.709v-18.899c0-.902.731-1.634 1.633-1.634z" transform="matrix(7.2892974981 4.2085033668 -4.2085033668 7.2892974981 -177.969725709 -4257.8784063)"/><path d="m2205.68 166.712c-7.9 4.603-17.76 4.603-25.66 0-1.43-.833-3.27-.348-4.1 1.082-.83 1.431-.35 3.269 1.08 4.103 9.76 5.686 21.94 5.686 31.7 0 1.43-.834 1.91-2.672 1.08-4.103-.83-1.43-2.67-1.915-4.1-1.082z" transform="matrix(5.7266295813 3.30627347835 -3.30627347835 5.7266295813 -11870.9678301 -7870.2979629)"/></svg>

<?xml version="1.0" encoding="UTF-8" standalone="no"?>
<!DOCTYPE svg PUBLIC "-//W3C//DTD SVG 1.1//EN" "http://www.w3.org/Graphics/SVG/1.1/DTD/svg11.dtd">
<svg width="100%" height="100%" viewBox="0 0 417 417" version="1.1" xmlns="http://www.w3.org/2000/svg" xmlns:xlink="http://www.w3.org/1999/xlink" xml:space="preserve" xmlns:serif="http://www.serif.com/" style="fill-rule:evenodd;clip-rule:evenodd;stroke-linejoin:round;stroke-miterlimit:2;">
    <g transform="matrix(4.16667,0,0,4.16667,0,0)">
        <g transform="matrix(0.375506,1.40141,-1.40141,0.375506,-530.442,-2927.22)">
            <path d="M2059.8,155.078C2058.51,151.862 2057.8,148.351 2057.8,144.674C2057.8,142.863 2056.33,141.392 2054.51,141.392C2052.7,141.392 2051.23,142.863 2051.23,144.674C2051.23,149.217 2052.12,153.557 2053.72,157.53C2054.39,159.21 2056.31,160.025 2057.99,159.348C2059.67,158.671 2060.48,156.758 2059.8,155.078Z"/>
        </g>
        <g transform="matrix(0.375506,1.40141,-1.40141,0.375506,-530.442,-2927.22)">
            <path d="M2082.69,172.408C2075.8,171.671 2069.66,168.418 2065.2,163.588C2063.97,162.258 2061.89,162.175 2060.56,163.404C2059.23,164.633 2059.15,166.711 2060.38,168.041C2065.89,174.008 2073.48,178.023 2081.99,178.934C2083.8,179.126 2085.41,177.821 2085.61,176.02C2085.8,174.219 2084.49,172.6 2082.69,172.408Z"/>
        </g>
        <g transform="matrix(1.37439,0.793505,-0.793505,1.37439,-3034.71,-1988.2)">
            <path d="M2329.59,109.156C2336.23,110.026 2342.64,113.01 2347.74,118.107C2359.22,129.594 2359.98,147.774 2350,160.139C2348.96,161.428 2347.07,161.63 2345.78,160.591C2344.49,159.551 2344.29,157.661 2345.33,156.372C2353.41,146.363 2352.79,131.647 2343.5,122.35C2339.57,118.425 2334.68,116.049 2329.59,115.22L2329.59,109.156Z"/>
        </g>
        <g transform="matrix(1.74943,1.01004,-1.01004,1.74943,-42.7127,-1021.89)">
            <path d="M308.193,412.093C308.874,412.093 309.484,412.518 309.72,413.157C311.285,417.398 317.079,433.099 318.858,437.919C319.159,438.734 318.822,439.647 318.063,440.071C318.062,440.072 318.062,440.072 318.061,440.072C314.454,442.087 312.22,445.895 312.22,450.026C309.703,452.768 300.884,452.768 297.897,450.026C297.897,445.895 295.662,442.087 292.055,440.072C292.054,440.072 292.054,440.072 292.054,440.071C291.295,439.647 290.957,438.734 291.258,437.919C293.037,433.099 298.832,417.398 300.397,413.157C300.633,412.518 301.242,412.093 301.924,412.093C301.924,412.093 301.925,412.093 301.925,412.093C302.827,412.093 303.558,412.825 303.558,413.727C303.558,418.588 303.558,432.626 303.558,432.626C302.093,433.22 301.058,434.658 301.058,436.335C301.058,438.543 302.85,440.335 305.058,440.335C307.266,440.335 309.058,438.543 309.058,436.335C309.058,434.658 308.023,433.22 306.558,432.626L306.558,413.727C306.558,412.825 307.289,412.093 308.191,412.093C308.192,412.093 308.192,412.093 308.193,412.093Z"/>
        </g>
        <g transform="matrix(1.37439,0.793505,-0.793505,1.37439,-2849.03,-1888.87)">
            <path d="M2205.68,166.712C2197.78,171.315 2187.92,171.315 2180.02,166.712C2178.59,165.879 2176.75,166.364 2175.92,167.794C2175.09,169.225 2175.57,171.063 2177,171.897C2186.76,177.583 2198.94,177.583 2208.7,171.897C2210.13,171.063 2210.61,169.225 2209.78,167.794C2208.95,166.364 2207.11,165.879 2205.68,166.712Z"/>
        </g>
    </g>
</svg>
